X: 34491
T: Riding On A Load Of Hay
R: polka
M: 2/4
K: Edorian
|:E>F GA|Be ef/e/|dB AF|A/B/A/G/ FD|
E>F GA|Be e>f|ge fd|1 e2 eB:|2 e2 ef||
ge fd|eB B>c|d/e/d/B/ A/B/A/G/|FD D2|
ge fd|eB B>c|dB AF|E2 E2|
ge fd|eB B>c|d/e/d/B/ A/B/A/G/|FD D2|
E/F/G F/G/A|GB e>f|ge af|e2 e2||

